dist/img/svg/ic_about-mouse.svg

<svg width="74" height="42" viewBox="0 0 74 42"  xmlns="http://www.w3.org/2000/svg">
<rect fill="#fff" x="25.001" y="1" width="24" height="40" rx="9" stroke="#00817C" stroke-width="2"/>
<path d="M73.8413 22C73.8413 21.7849 73.7592 21.5699 73.5953 21.4059L68.4355 16.2462C68.1073 15.9179 67.5751 15.9179 67.247 16.2462C66.919 16.5743 66.919 17.1063 67.247 17.4346L71.8127 22L67.2472 26.5654C66.9191 26.8936 66.9191 27.4256 67.2472 27.7537C67.5753 28.0821 68.1075 28.0821 68.4357 27.7537L73.5955 22.594C73.7594 22.43 73.8413 22.215 73.8413 22Z" fill="#00817C"/>
<path d="M0.000482415 22C0.00048242 21.7849 0.082599 21.5699 0.246486 21.4059L5.40627 16.2462C5.73449 15.9179 6.26666 15.9179 6.59475 16.2462C6.92284 16.5743 6.92284 17.1063 6.59475 17.4346L2.02909 22L6.59459 26.5654C6.92268 26.8936 6.92268 27.4256 6.59459 27.7537C6.2665 28.0821 5.73433 28.0821 5.40611 27.7537L0.246326 22.594C0.0824126 22.43 0.000482409 22.215 0.000482415 22Z" fill="#00817C"/>
</svg>

<svg width="74" height="42" viewBox="0 0 74 42" xmlns="http://www.w3.org/2000/svg"><rect fill="#fff" x="25.001" y="1" width="24" height="40" rx="9" stroke="#00817C" stroke-width="2"/><path d="M73.841 22a.838.838 0 00-.246-.594l-5.16-5.16a.84.84 0 10-1.188 1.189L71.813 22l-4.566 4.565a.84.84 0 001.189 1.189l5.16-5.16A.838.838 0 0073.84 22zM0 22c0-.215.083-.43.246-.594l5.16-5.16a.84.84 0 111.189 1.189L2.029 22l4.566 4.565a.84.84 0 01-1.189 1.189l-5.16-5.16A.838.838 0 010 22z" fill="#00817C"/></svg>
